!!!COM: labrinth-feat-emeli-sande
!!!OTL: beneath-your-beautiful
!!!RNB: hooktheoryid: ZdPoDDXOonM
**kern	**text
*clefG2	*
*k[f#c#]	*
*M4/4	*
=1	=1
4r	D
8f#	.
8f#	.
8f#	Em
16e	.
8.e	.
[8d	.
=2	=2
4d]	G
[4rL	.
4r]J	A
8B	.
16A	.
[16e	.
=3	=3
8e]	D
[4.f#L	.
8f#]J	Em
4r	.
[8d	.
=4	=4
4d]	G
[4rL	.
2r]J	A
=5	=5
8r	D
8f#	.
8f#	.
8f#	.
8f#	Em
16e	.
8.e	.
[8d	.
=6	=6
4d]	G
[4rL	.
8.r]J	A
16A	.
8B	.
16A	.
[16e	.
=7	=7
8e]	D
4f#	.
8d	.
8.e	Em
[4f#	.
16f#	.
=8	=8
4f#]	G
[4d	.
16d]	A
4..r	.
*-	*-